svg/fluentui-system-icons/ic_fluent_drawer_subtract_24_filled.svg

<svg width="24" height="24" viewBox="0 0 24 24" fill="none" xmlns="http://www.w3.org/2000/svg">
<path d="M22 6.5C22 3.46243 19.5376 1 16.5 1C13.4624 1 11 3.46243 11 6.5C11 9.53757 13.4624 12 16.5 12C19.5376 12 22 9.53757 22 6.5ZM13.4956 7.00003C13.2197 7.00003 12.9961 6.77618 12.9961 6.50003C12.9961 6.22389 13.2197 6.00003 13.4956 6.00003H19.4966C19.7725 6.00003 19.9961 6.22389 19.9961 6.50003C19.9961 6.77618 19.7725 7.00003 19.4966 7.00003H13.4956ZM6.25 4H10.4982C10.3004 4.47417 10.1572 4.97679 10.0764 5.5H6.25C5.2835 5.5 4.5 6.2835 4.5 7.25V8H10.1739C10.2986 8.52777 10.4876 9.03068 10.7322 9.5H4.5V14H9.05769C9.44004 14 9.75 14.31 9.75 14.6923V14.75C9.75 15.9926 10.7574 17 12 17C13.2426 17 14.25 15.9926 14.25 14.75V14.6923C14.25 14.31 14.56 14 14.9423 14H19.5V12.2678C20.051 11.9806 20.5557 11.6168 21 11.1904V18.75C21 20.5449 19.5449 22 17.75 22H6.25C4.45508 22 3 20.5449 3 18.75V7.25C3 5.45507 4.45507 4 6.25 4Z" fill="#212121"/>
</svg>

<svg xmlns="http://www.w3.org/2000/svg" width="24" height="24"><path d="M22 6.5a5.5 5.5 0 1 0-11 0 5.5 5.5 0 0 0 11 0Zm-8.504.5a.5.5 0 0 1 0-1h6a.5.5 0 0 1 0 1h-6ZM6.25 4h4.248a6.451 6.451 0 0 0-.422 1.5H6.25A1.75 1.75 0 0 0 4.5 7.25V8h5.674c.125.528.314 1.03.558 1.5H4.5V14h4.558c.382 0 .692.31.692.692v.058a2.25 2.25 0 0 0 4.5 0v-.058c0-.382.31-.692.692-.692H19.5v-1.732A6.518 6.518 0 0 0 21 11.19v7.56A3.25 3.25 0 0 1 17.75 22H6.25A3.25 3.25 0 0 1 3 18.75V7.25A3.25 3.25 0 0 1 6.25 4Z"/></svg>
